X:64
T:25th Ps. WHG.063
R:hymn
S:W.H.Giles MS,Bampton,Oxfordshire,1839p64
O:England
H:donated by Mrs W.R.Kettlewell to VWML,Apr 1927.
A:Bampton, Oxfordshire
N:There is further writing on the title line: it
N:looks like lnlln14.
Z:PJHeadford – VMP 2009
M:3/2
L:1/2
Q:1/2=100
K:F
F|B2A|GFE|F2F|GA=B|\
c3/4d/4ed|c2||
“_p”c|cBA|(Bc)d|(FB)A|AG”_f”(c3/4B/4)|\
(AE)F|(G/A/4B/4)AG|HF2|]

